X: 1639
T: Sabâ Peşrev
C: Hasan Esen
O: Turkey
F: http://compmusic.upf.edu/node/140
N: saba--pesrev--fahte----hasan_esen
N: makam= saba
N: form= pesrev
N: usul= fahte = 20/4
M: 20/4
L: 1/16
K: C _2/4B _3/4d  
Q: 1/4=87
%%MIDI tuningsystem comma53
B4 c2c2 c8 c2d2 c2B2 c4 z4 c2d2 c2B2 c4 d2e2 d3c B2c2 B2c2 d2B2 c12 z4  | 
w:  1. HANE  | 
c2d2 c2e2 d4 c4 B2c2 B2d2 c4 B4 A2B2 A2c2 B4 A4 A4 e2f2 e2d2 c2B2 c12 z4  | 
w:   | 
f4 g4 g8 g2_7/8a2 g2f2 g4 z4 g2a2 g2a2 b4 a2g2 f12 z4 e2f2 e2f2 g4 f2e2  | 
w:  TESLİM  | 
e12 z4 d2e2 d2e2 f4 e2d2 e4 d2c2 c3B A4 B3A B2d2 c2B2 B2A2 A12 z4  | 
w:   | 
=d4 e4 e8 c2d2 c2B2 c3B A4 A4 ^f2g2 f2g2 f2e2 a4 g2f2 g4 f2e2 e12 z4  | 
w:  2. HANE  | 
e4 a4 e4 z4 =d4 g4 d4 z4 c4 f4 c4 z4 B2c2 _3/4d2e2 d2e2 d2c2 c12 z4  | 
w:   | 
f4 g4 g8 g2_7/8a2 g2f2 g4 z4 g2a2 g2a2 b4 a2g2 f12 z4 e2f2 e2f2 g4 f2e2  | 
w:  TESLİM  | 
e12 z4 d2e2 d2e2 f4 e2d2 e4 d2c2 c3B A4 B3A B2d2 c2B2 B2A2 A12 z4  | 
w:   | 
e4 f4 f8 f2g2 f2e2 e4 z4 e2f2 e2=d2 e2d2 c2B2 c4 a4 g3f e2f2 e4 f8 z4  | 
w:  3. HANE  | 
c8 =d4 e4 f8 f4 g4 g2_7/8a2 g2f2 e2f2 e2_3/4d2 d2e2 d2c2 d3c B2c2 B4 c8 z4  | 
w:   | 
f4 g4 g8 g2_7/8a2 g2f2 g4 z4 g2a2 g2a2 b4 a2g2 f12 z4 e2f2 e2f2 g4 f2e2  | 
w:  TESLİM  | 
e12 z4 d2e2 d2e2 f4 e2d2 e4 d2c2 c3B A4 B3A B2d2 c2B2 B2A2 A12 z4  | 
w:   | 
g4 a4 a4 b4 c'6d'2 c'2b2 a4 b6c'2 b2a2 g4 a2b2 a2g2 a2b2 c'2d'2 b4 c'8 z4  | 
w:  4. HANE  | 
d'4 c'2b2 c'4 b2a2 a2b2 a2g2 g2_7/8a2 g2f2 f2g2 f2e2 e2f2 e2d2 d3c B2c2 B2c2 d2B2 c12 z4  | 
w:   | 
f4 g4 g8 g2_7/8a2 g2f2 g4 z4 g2a2 g2a2 b4 a2g2 f12 z4 e2f2 e2f2 g4 f2e2  | 
w:  TESLİM  | 
e12 z4 d2e2 d2e2 f4 e2d2 e4 d2c2 c3B A4 B3A B2d2 c2B2 B2A2 A12 z4  | 
w:   | 
|


